X: 25174
T: Major Mackie
R: jig
M: 6/8
K: Dmajor
ABc dcd|B2 e e2 d|c2 a a^ga|f2 d dcB|
AA/B/c dcd|B2 e e^de|cea gec|d3 d2:|
f^ef def|g2 g g2 f|e^de cde|f2 f f2 A|
d2 d def|g2 B e2 d|ce/f/a gec|d3- d2:|

